!!!!SEGMENT: pl-cz--iii-43--001_bogunski-baltazar--offertorio-elegit-eum-dominus.krn
!!!cenid: 18xx:689
!!!COM: Boguński, Baltazar
!!!COM-rismID: pe30024257
!!!CDT: 1762-1849
!!!CNT: Polish
!!!OPR: Offertorio
!!!OTL: Elegit eum Dominus
!!!PDT:
!!!AGN: Sacred
!!!SMS-siglum: PL-CZ
!!!SMS-shelfmark: III-43
!!!SMS-shelfwork: 001 M
!!!SMS-variant:
!!!SMS-altvar:
!!!NIFC-rismSourceID: 300237594
!!!NIFC-rismChildID: 300237594
!!!NIFC-islandoraID: pl-cz:38262
!!!URL-pdf-islandora: https://repozytorium.nifc.pl/islandora/object/pl-cz%3A38262/datastream/PDF/view
!!!URL-scan: https://polish.musicsources.pl/pl/lokalizacje/galeria/rekopisy/6924/1 @EN{Scan on Polish Music Sources Website} @PL{Skany w portalu Dziedzictwo Muzyki Polskiej w otwartym dostępie}
!!!ONB-nifc: UWAGA: części Offertorio: Elegit eum Dominus, Quoniam rex noster
!!!AIN: 2 clars 2 cor 1 empty 1 flt 1 soprn 1 viola 2 violn 1 vox
!!!key:
**kern	**dynam	**kern	**dynam	**kern	**dynam	**kern	**dynam	**kern	**kern	**text	**kern	**dynam	**kern	**dynam	**kern	**dynam	**kern	**dynam	**kern	**dynam
*part11	*part11	*part10	*part10	*part9	*part9	*part8	*part8	*part7	*part6	*part6	*part5	*part5	*part4	*part4	*part3	*part3	*part2	*part2	*part1	*part1
*staff11	*	*staff10	*	*staff9	*	*staff8	*	*staff7	*staff6	*staff6	*staff5	*	*staff4	*	*staff3	*	*staff2	*	*staff1	*
*Iempty	*	*Iviola	*	*Ivioln	*	*Ivioln	*	*Isoprn	*Ivox	*	*Icor	*	*Icor	*	*Iclars	*	*Iclars	*	*Iflt	*
*I"Baſso.	*	*I"Viola.	*	*I"Violino 2do	*	*I"Violino 1mo	*	*I"Sop:	*I"Canto.	*	*I"Corno 2do in E.	*	*I"Corno 1mo in E.	*	*I"Clarinetto 2do in C	*	*I"Clarinetto 1mo in C.	*	*I"Flauto.	*
*I'cb	*	*I'vla	*	*I'vl II	*	*I'vl I	*	*I'S	*I'C	*	*I'cor II	*	*I'cor I	*	*I'cl II	*	*I'cl I	*	*I'fl	*
*group5	*	*group4	*	*group4	*	*group4	*	*group3	*group3	*	*group2	*	*group2	*	*group1	*	*group1	*	*group1	*
*clefF4	*	*clefC3	*	*clefG2	*	*clefG2	*	*clefG2	*clefC1	*	*clefG2	*	*clefG2	*	*clefG2	*	*clefG2	*	*clefG2	*
*ITrd0c0	*	*	*	*	*	*	*	*	*	*	*ITrd5c8	*	*ITrd5c8	*	*	*	*	*	*	*
*k[f#c#g#d#]	*	*k[f#c#g#d#]	*	*k[f#c#g#d#]	*	*k[f#c#g#d#]	*	*k[f#c#g#d#]	*k[f#c#g#d#]	*	*k[f#c#g#d#]	*	*k[f#c#g#d#]	*	*k[f#c#g#d#]	*	*k[f#c#g#d#]	*	*k[f#c#g#d#]	*
*e:	*	*e:	*	*e:	*	*e:	*	*e:	*e:	*	*e:	*	*e:	*	*e:	*	*e:	*	*e:	*
*M4/4	*	*M4/4	*	*M4/4	*	*M4/4	*	*M4/4	*M4/4	*	*M4/4	*	*M4/4	*	*M4/4	*	*M4/4	*	*M4/4	*
*met(c)	*	*met(c)	*	*met(c)	*	*met(c)	*	*met(c)	*met(c)	*	*met(c)	*	*met(c)	*	*met(c)	*	*met(c)	*	*met(c)	*
!	!	!LO:TX:a:t=Aria	!	!LO:TX:a:t=Aria	!	!LO:TX:a:t=Aria.	!	!	!	!	!LO:TX:a:t=Aria	!	!LO:TX:a:t=Aria	!	!LO:TX:a:t=Aria	!	!LO:TX:a:t=Aria	!	!LO:TX:a:t=Aria	!
!LO:TX:a:B:t=Maestoso.	!LO:DY:b	!LO:TX:a:B:t=Maestoso.	!LO:DY:b:t=ff	!LO:TX:a:B:t=Maestoso.	!LO:DY:b:t=f&colon;	!LO:TX:a:B:t=Maestoso.	!LO:DY:b:t=ffo&colon;	!LO:TX:t=P:problem=partia C (cue notes) w głosie vl I [od t. 7]	!LO:TX:a:B:t=Maestoso.	!	!LO:TX:a:B:t=Maestoso.	!LO:DY:b:t=f&colon;	!LO:TX:a:B:t=Maestoso.	!LO:DY:b	!LO:TX:a:B:t=Maestoso.	!LO:DY:b:t=for	!LO:TX:a:B:t=Maestoso.	!LO:DY:b	!LO:TX:a:B:t=Maestoso.	!LO:DY:b:t=f&colon;
16E\	f	16G#/	ff	16B/ 16g#	f	16ee\	ff	16ryy	16r	.	16E/	f	16e\	f	16ee\	f	16ee\	ff	16eee\	f
=1	=1	=1	=1	=1	=1	=1	=1	=1	=1	=1	=1	=1	=1	=1	=1	=1	=1	=1	=1	=1
*2\right	*	*2\right	*	*2\right	*	*2\right	*	*2\right	*2\right	*	*2\right	*	*2\right	*	*2\right	*	*2\right	*	*2\right	*
!	!	!	!	!	!	!	!	!	!LO:TX:a:t=3.	!	!	!	!	!	!	!	!	!	!	!
4E\	.	4G#/	.	4B/ 4g#	.	4ee\	.	1ryy	0r	.	4E/	.	4e\	.	4ee\	.	4ee\	.	4eee\	.
8.r	.	8.r	.	8.r	.	8.r	.	.	.	.	8.r	.	8.r	.	8.r	.	8.r	.	8.r	.
16Dn\	.	16G#/	.	16B/ 16e	.	16gg#\	.	.	.	.	16E/	.	16e\	.	16ee\	.	16gg#\	.	16ggg#\	.
4D\	.	4G#/	.	4B/ 4e	.	4gg#\	.	.	.	.	4E/	.	4e\	.	4ee\	.	4gg#\	.	4ggg#\	.
8.r	.	8.r	.	8.r	.	8.r	.	.	.	.	8.r	.	8.r	.	8.r	.	8.r	.	8.r	.
16C#\	.	16E/ 16A	.	16c#/ 16e	.	16aa\	.	.	.	.	16E/	.	16e\	.	16ee\	.	16aa\	.	16aaa\	.
=2	=2	=2	=2	=2	=2	=2	=2	=2	=2	=2	=2	=2	=2	=2	=2	=2	=2	=2	=2	=2
4C#\	.	4E/ 4A	.	4c#/ 4e	.	4aa\	.	1ryy	.	.	4E/	.	4e\	.	4ee\	.	4aa\	.	4aaa\	.
4r	.	4r	.	4r	.	4r	.	.	.	.	4r	.	4r	.	4r	.	4r	.	4r	.
8AA/	.	8A/	.	8c#/	.	(32ff#\LLL	.	.	.	.	2r	.	2r	.	8a\	.	8cc#\	.	32ff#\LLL	.
.	.	.	.	.	.	32gg#\	.	.	.	.	.	.	.	.	.	.	.	.	32gg#\	.
.	.	.	.	.	.	32aa\	.	.	.	.	.	.	.	.	.	.	.	.	32aa\	.
.	.	.	.	.	.	32bb\JJJ	.	.	.	.	.	.	.	.	.	.	.	.	32bb\JJJ	.
8r	.	8r	.	8r	.	32ccc#\LLL	.	.	.	.	.	.	.	.	8r	.	8r	.	32ccc#\LLL	.
.	.	.	.	.	.	32bb#X\	.	.	.	.	.	.	.	.	.	.	.	.	32bb#X\	.
.	.	.	.	.	.	32ddd#\	.	.	.	.	.	.	.	.	.	.	.	.	32ddd#\	.
.	.	.	.	.	.	32ccc#\JJJ	.	.	.	.	.	.	.	.	.	.	.	.	32ccc#\JJJ	.
8r	.	8r	.	8r	.	8ccc#\)	.	.	.	.	.	.	.	.	8r	.	8r	.	8ccc#\	.
!	!LO:DY:b	!	!	!	!	!	!	!	!	!	!	!	!	!	!	!	!	!	!	!
8A\	p	8A/	.	8c#/ 8f#	.	8r	.	.	.	.	.	.	.	.	8a\	.	8cc#\	.	8r	.
!	!	!	!	!	!	!	!	!	!	!	!	!	!	!	!	!	!	!	!LO:LB:g=original	!
=3	=3	=3	=3	=3	=3	=3	=3	=3	=3	=3	=3	=3	=3	=3	=3	=3	=3	=3	=3	=3
!	!	!	!	!	!	!	!	!	!	!	!	!LO:DY:b:t=p&colon;	!	!LO:DY:b:t=p.	!	!	!	!	!	!
8BB/	.	8G#/	.	8B/ 8e	.	(32ee\LLL	.	1ryy	1r	.	8e\	p	8g#\	p	8g#\	.	8b\	.	32ee\LLL	.
.	.	.	.	.	.	32ff#\	.	.	.	.	.	.	.	.	.	.	.	.	32ff#\	.
.	.	.	.	.	.	32gg#\	.	.	.	.	.	.	.	.	.	.	.	.	32gg#\	.
.	.	.	.	.	.	32aa\JJJ	.	.	.	.	.	.	.	.	.	.	.	.	32aa\JJJ	.
8r	.	8r	.	8r	.	32bb\LLL	.	.	.	.	8r	.	8r	.	8r	.	8r	.	32bb\LLL	.
.	.	.	.	.	.	32aa#X\	.	.	.	.	.	.	.	.	.	.	.	.	32aa#X\	.
.	.	.	.	.	.	32ccc#\	.	.	.	.	.	.	.	.	.	.	.	.	32ccc#\	.
.	.	.	.	.	.	32bb\JJJ	.	.	.	.	.	.	.	.	.	.	.	.	32bb\JJJ	.
8r	.	8r	.	8r	.	8bb\)	.	.	.	.	8r	.	8r	.	8r	.	8r	.	8bb\	.
8B\	.	8G#/	.	8B/ 8e	.	8r	.	.	.	.	8e\	.	8g#\	.	8g#\	.	8b\	.	8r	.
!	!	!	!	!	!	!LO:LB:g=original	!	!	!	!	!	!	!	!	!	!	!LO:LB:g=original	!	!	!
8BB/	.	8d#\	.	8f#/	.	(32dd#\LLL	.	.	.	.	8B/	.	8f#\	.	8f#/	.	8dd#\	.	32dd#\LLL	.
.	.	.	.	.	.	32ee\	.	.	.	.	.	.	.	.	.	.	.	.	32ee\	.
.	.	.	.	.	.	32ff#\	.	.	.	.	.	.	.	.	.	.	.	.	32ff#\	.
.	.	.	.	.	.	32gg#\JJJ	.	.	.	.	.	.	.	.	.	.	.	.	32gg#\JJJ	.
!	!	!	!	!	!	!LO:SIC:s=32aan:v	!	!	!	!	!	!	!	!	!	!	!	!	!LO:SIC:s=32aan:v	!
8r	.	8r	.	8r	.	32aa#\LLL	.	.	.	.	8r	.	8r	.	8r	.	8r	.	32aa#\LLL	.
.	.	.	.	.	.	32gg#\	.	.	.	.	.	.	.	.	.	.	.	.	32gg#\	.
.	.	.	.	.	.	32bb\	.	.	.	.	.	.	.	.	.	.	.	.	32bb\	.
!	!	!	!	!	!	!LO:SIC:s=32aan:v	!	!	!	!	!	!	!	!	!	!	!	!	!LO:SIC:s=32aan:v	!
.	.	.	.	.	.	32aa#\JJJ)	.	.	.	.	.	.	.	.	.	.	.	.	32aa#\JJJ	.
8.r	.	8.r	.	8.r	.	8.r	.	.	.	.	8.r	.	8.r	.	8.r	.	8.r	.	8.r	.
!	!	!	!	!	!	!LO:N:vis=8	!	!	!	!	!	!	!	!	!	!LO:DY:b	!	!	!	!
16EE/	.	16e\ 16b	.	16gg#\ 16bb	.	16eee\	.	.	.	.	16E/	.	16e\	.	16ee\	ff	16gg#\	.	16eee\	.
!LO:LB:g=original	!	!LO:LB:g=original	!	!LO:LB:g=original	!	!	!	!	!	!	!LO:LB:g=original	!	!LO:LB:g=original	!	!LO:LB:g=original	!	!	!	!	!
=4	=4	=4	=4	=4	=4	=4	=4	=4	=4	=4	=4	=4	=4	=4	=4	=4	=4	=4	=4	=4
*	*	*	*	*	*	*^	*	*	*	*	*	*	*	*	*	*	*	*	*	*
4EE/	.	4e\ 4b	.	4gg#\ 4bb	.	4eee\	4ryy	.	1ryy	4r	.	4E/	.	4e\	.	4ee\	.	4gg#\	.	4eee\	.
!	!	!	!	!	!	!	!	!	!	!	!	!	!	!LO:TX:b:i:t=colla voce	!	!	!	!	!	!	!
4r;	.	4r;	.	4r;	.	4r;	4ryy	.	.	4r;	.	4r;	.	4r;	.	4r;	.	4r;	.	4r;	.
!	!	!	!	!	!	!LO:TX:t=P:problem=cue notes partii C	!	!	!	!	!	!	!	!	!	!	!	!	!	!	!
!	!	!	!	!	!	!LO:TX:a:t=Solo lento	!	!	!	!	!	!LO:TX:b:i:t=colla voce	!LO:DY:a:t=pp&colon;	!	!LO:DY:b:t=pp&colon;	!	!	!	!	!	!
2r	.	2r	.	2r	.	2r	4g#\	.	.	4g#/	E-	4e\	pp	4g#\	pp	2r	.	2r	.	2r	.
.	.	.	.	.	.	.	8.g#\L	.	.	8.g#/	-le-	4B\	.	4f#\	.	.	.	.	.	.	.
.	.	.	.	.	.	.	16f#\Jk	.	.	16f#/	-git	.	.	.	.	.	.	.	.	.	.
=5	=5	=5	=5	=5	=5	=5	=5	=5	=5	=5	=5	=5	=5	=5	=5	=5	=5	=5	=5	=5	=5
4r	.	4r	.	4r	.	4r	4e\	.	1ryy	4e/	e-	8G#/	.	8e\	.	4r	.	4r	.	4r	.
.	.	.	.	.	.	.	.	.	.	.	.	8r	.	8r	.	.	.	.	.	.	.
.	.	.	.	.	.	.	(16qqg#/LL	.	.	16qqg#/LL	.	.	.	.	.	.	.	.	.	.	.
.	.	.	.	.	.	.	16qqf#/JJ)	.	.	16qqf#/JJ	.	.	.	.	.	.	.	.	.	.	.
8E\	.	8E/	.	8B/	.	8g#/	4e\	.	.	4e/	-um	8G#/	.	8e\	.	8b\	.	8ee\	.	8gg#\	.
8r	.	8r	.	8r	.	8rdd	.	.	.	.	.	8r	.	8r	.	8r	.	8r	.	8r	.
8EE/	.	8E/	.	8G#/	.	8e/	8reyy	.	.	8.r	.	8G#/	.	8e\	.	8b\	.	8ee\	.	8ee\	.
8r	.	8r	.	8r	.	8rdd	8b/	.	.	.	.	8r	.	8r	.	8r	.	8r	.	8r	.
.	.	.	.	.	.	.	.	.	.	16b\	e-	.	.	.	.	.	.	.	.	.	.
.	.	.	.	.	.	.	8qdd#/	.	.	8qqdd#/	.	.	.	.	.	.	.	.	.	.	.
4r	.	4r	.	4r	.	4rdd	8.cc#/L	.	.	8.cc#\	-le-	4r	.	4r	.	4r	.	4r	.	4r	.
.	.	.	.	.	.	.	16b/Jk	.	.	16b\	-git	.	.	.	.	.	.	.	.	.	.
!	!	!	!	!	!	!	!	!	!	!LO:LB:g=original	!	!	!	!	!	!	!	!	!	!	!
=6	=6	=6	=6	=6	=6	=6	=6	=6	=6	=6	=6	=6	=6	=6	=6	=6	=6	=6	=6	=6	=6
4BB/	.	4B/	.	4d#/	.	4b\	4.b/	.	2ryy	4.b\	e-	4B/	.	4f#\	.	4dd#\	.	4ff#\	.	4aa\	.
4r	.	4r	.	4r	.	4r	.	.	.	.	.	4r;	.	4r;	.	4r	.	4r	.	4r	.
.	.	.	.	.	.	.	16b/LL	.	.	16b\LL	-um	.	.	.	.	.	.	.	.	.	.
.	.	.	.	.	.	.	32dd#/L	.	.	32dd#\L	.	.	.	.	.	.	.	.	.	.	.
.	.	.	.	.	.	.	32ff#/JJJ	.	.	32ff#\JJJ	.	.	.	.	.	.	.	.	.	.	.
*	*	*	*	*	*	*Xtuplet	*	*	*	*Xtuplet	*	*	*	*	*	*	*	*	*	*	*
!	!	!	!	!	!	!LO:TX:t=P:problem=grupa zapisana jako undecymola [bez numeru i łuku]	!	!	!	!LO:TX:t=P:problem=grupa zapisana jako undecymola [bez numeru i łuku]	!	!	!	!	!	!	!	!	!	!	!
4r;	.	4r;	.	4r;	.	4rccc;	88aa/LLL	.	4ryy	88aa\LLL	Do-	2r	.	2r	.	4r;	.	4r;	.	4r;	.
.	.	.	.	.	.	.	88gg#/	.	.	88gg#\	.	.	.	.	.	.	.	.	.	.	.
.	.	.	.	.	.	.	88ff#/	.	.	88ff#\	.	.	.	.	.	.	.	.	.	.	.
.	.	.	.	.	.	.	88ee/	.	.	88ee\	.	.	.	.	.	.	.	.	.	.	.
.	.	.	.	.	.	.	88dd#/	.	.	88dd#\	.	.	.	.	.	.	.	.	.	.	.
.	.	.	.	.	.	.	88cc#/	.	.	88cc#\	.	.	.	.	.	.	.	.	.	.	.
.	.	.	.	.	.	.	88b/	.	.	88b\	.	.	.	.	.	.	.	.	.	.	.
.	.	.	.	.	.	.	88a/	.	.	88a\	.	.	.	.	.	.	.	.	.	.	.
.	.	.	.	.	.	.	88g#/	.	.	88g#\	.	.	.	.	.	.	.	.	.	.	.
.	.	.	.	.	.	.	88f#/	.	.	88f#\	-mi-	.	.	.	.	.	.	.	.	.	.
.	.	.	.	.	.	.	88e/JJJ	.	.	88e\JJJ	.	.	.	.	.	.	.	.	.	.	.
!	!	!	!	!	!	!	!LO:N:vis=8	!	!	!LO:N:vis=8	!	!	!	!	!	!	!	!	!	!	!
.	.	.	.	.	.	.	16d#/	.	.	16d#/	-nus	.	.	.	.	.	.	.	.	.	.
!	!	!	!	!	!	!	!LO:N:vis=8	!	!	!LO:N:vis=8	!	!	!	!	!	!	!	!	!	!	!
.	.	.	.	.	.	.	16r;	.	.	16r;	.	.	.	.	.	.	.	.	.	.	.
!	!	!	!	!	!	!LO:LB:g=original	!	!	!	!	!	!	!	!	!	!	!	!	!	!	!
4r	.	4r	.	4r	.	4r	4ryy	.	8.b/	8.b\	et	.	.	.	.	4r	.	4r	.	4r	.
.	.	.	.	.	.	.	.	.	16a/	16a\	ex-	.	.	.	.	.	.	.	.	.	.
*	*	*	*	*	*	*v	*v	*	*	*	*	*	*	*	*	*	*	*	*	*	*
=7	=7	=7	=7	=7	=7	=7	=7	=7	=7	=7	=7	=7	=7	=7	=7	=7	=7	=7	=7	=7
!	!	!	!	!	!	!	!	!	!	!	!LO:TX:a:t=1.	!	!LO:TX:a:t=1.	!	!LO:TX:a:t=1	!	!LO:TX:a:t=1	!	!	!
4r	.	4r	.	4r	.	4r	.	4g#/	4g#\	-cel-	1r	.	1r	.	1r	.	1r	.	1r	.
.	.	.	.	.	.	.	.	16qqb/LL	16qqb/LL	.	.	.	.	.	.	.	.	.	.	.
.	.	.	.	.	.	.	.	16qqa/JJ	16qqa/JJ	.	.	.	.	.	.	.	.	.	.	.
8E\	.	8B\	.	8e/	.	8g#/ 8b	.	8g#/	8g#\	-sum	.	.	.	.	.	.	.	.	.	.
8r	.	8r	.	8r	.	8r	.	8r	8r	.	.	.	.	.	.	.	.	.	.	.
4AA/	.	4c#\	.	4f#/	.	8f#\ 8cc#	.	8r	8r	.	.	.	.	.	.	.	.	.	.	.
.	.	.	.	.	.	8r	.	16cc#\	16cc#\	fe-	.	.	.	.	.	.	.	.	.	.
.	.	.	.	.	.	.	.	16dd#\	16dd#\	-cit	.	.	.	.	.	.	.	.	.	.
4r	.	4r	.	4r	.	4r	.	16ee\	16ee\	il-	.	.	.	.	.	.	.	.	.	.
.	.	.	.	.	.	.	.	16b#X\	16b#X\	-lum	.	.	.	.	.	.	.	.	.	.
.	.	.	.	.	.	.	.	(16cc#\	(16cc#\	pre	.	.	.	.	.	.	.	.	.	.
.	.	.	.	.	.	.	.	16a\)	16a\)	.	.	.	.	.	.	.	.	.	.	.
!	!	!	!	!	!	!	!	!	!LO:LB:g=original	!	!	!	!	!	!	!	!	!	!LO:LB:g=original	!
=8	=8	=8	=8	=8	=8	=8	=8	=8	=8	=8	=8	=8	=8	=8	=8	=8	=8	=8	=8	=8
4BB/	.	4B/	.	4e/	.	4g#/	.	2g#/	[2g#/	Re-	1r;	.	1r;	.	1r;	.	1r;	.	1r;	.
4r;	.	4r;	.	4r;	.	4r;	.	.	.	.	.	.	.	.	.	.	.	.	.	.
.	.	.	.	.	.	.	.	.	(32qqg#/LLL]	-gi-	.	.	.	.	.	.	.	.	.	.
.	.	.	.	.	.	.	.	(32qqg#/LLL	32qqa/	.	.	.	.	.	.	.	.	.	.	.
.	.	.	.	.	.	.	.	32qqa/	32qqg#/	-bus	.	.	.	.	.	.	.	.	.	.
.	.	.	.	.	.	.	.	32qqg#/	32qqf#/JJJ;	.	.	.	.	.	.	.	.	.	.	.
.	.	.	.	.	.	.	.	32qqf#/JJJ	32qqg#/LLL	.	.	.	.	.	.	.	.	.	.	.
.	.	.	.	.	.	.	.	32qqg#/LLL	32qqe/	ter-	.	.	.	.	.	.	.	.	.	.
.	.	.	.	.	.	.	.	32qqe/	32qqb/	.	.	.	.	.	.	.	.	.	.	.
.	.	.	.	.	.	.	.	32qqb/	32qqg#/JJJ	.	.	.	.	.	.	.	.	.	.	.
.	.	.	.	.	.	.	.	32qqg#/JJJ	32qqee\LLL	.	.	.	.	.	.	.	.	.	.	.
.	.	.	.	.	.	.	.	32qqee/LLL	32qqb\	.	.	.	.	.	.	.	.	.	.	.
.	.	.	.	.	.	.	.	32qqb/	32qqgg#\	.	.	.	.	.	.	.	.	.	.	.
.	.	.	.	.	.	.	.	32qqgg#/	32qqff#\JJJ	.	.	.	.	.	.	.	.	.	.	.
.	.	.	.	.	.	.	.	32qqff#/JJJ	32qqee\LLL	.	.	.	.	.	.	.	.	.	.	.
.	.	.	.	.	.	.	.	32qqee/LLL	32qqdd#\	.	.	.	.	.	.	.	.	.	.	.
.	.	.	.	.	.	.	.	32qqdd#/	32qqcc#\	.	.	.	.	.	.	.	.	.	.	.
.	.	.	.	.	.	.	.	32qqcc#/	32qqb\	.	.	.	.	.	.	.	.	.	.	.
.	.	.	.	.	.	.	.	32qqb/	32qqa\	.	.	.	.	.	.	.	.	.	.	.
!	!	!	!	!	!	!	!	!	!	!LO:MO:mod=-rae	!	!	!	!	!	!	!	!	!	!
.	.	.	.	.	.	.	.	32qqa/JJJ	32qqg#\JJJ)	.	.	.	.	.	.	.	.	.	.	.
8BB/	.	8B/	.	8d#/	.	8f#/	.	4f#;/	4f#;/	-re	.	.	.	.	.	.	.	.	.	.
8r;	.	8r;	.	8r;	.	8r;	.	.	.	.	.	.	.	.	.	.	.	.	.	.
4r	.	4r	.	4r	.	4r	.	8.b/L	8.b\	e-	.	.	.	.	.	.	.	.	.	.
.	.	.	.	.	.	.	.	16b/Jk	16b\	.	.	.	.	.	.	.	.	.	.	.
=9	=9	=9	=9	=9	=9	=9	=9	=9	=9	=9	=9	=9	=9	=9	=9	=9	=9	=9	=9	=9
!	!	!	!	!	!	!	!	!	!	!	!LO:TX:a:t=1.	!	!LO:TX:a:t=1.	!	!LO:TX:a:t=1	!	!LO:TX:a:t=1.	!	!LO:TX:a:t=1.	!
8E\	.	8G#/	.	8B/	.	8g#/	.	4b\	4b\	-le-	1r	.	1r	.	1r	.	1r	.	1r	.
8r	.	8r	.	8r	.	8r	.	.	.	.	.	.	.	.	.	.	.	.	.	.
8E\	.	8G#/	.	8B/	.	8g#/	.	8g#/	8g#\	-git	.	.	.	.	.	.	.	.	.	.
8r	.	8r	.	8r	.	8r	.	16r	16r	.	.	.	.	.	.	.	.	.	.	.
.	.	.	.	.	.	.	.	16g#/	16g#\	e-	.	.	.	.	.	.	.	.	.	.
8E\	.	8G#/	.	8B/	.	8g#/	.	4g#/	4g#\	-le-	.	.	.	.	.	.	.	.	.	.
8r	.	8r	.	8r	.	8r	.	.	.	.	.	.	.	.	.	.	.	.	.	.
.	.	.	.	.	.	.	.	32qqa/LLL	32qqa/LLL	.	.	.	.	.	.	.	.	.	.	.
.	.	.	.	.	.	.	.	32qqg#/	32qqg#/	.	.	.	.	.	.	.	.	.	.	.
.	.	.	.	.	.	.	.	32qqf##X/	32qqf##X/	.	.	.	.	.	.	.	.	.	.	.
.	.	.	.	.	.	.	.	32qqg#/JJJ	32qqg#/JJJ	.	.	.	.	.	.	.	.	.	.	.
8E\	.	8A/	.	8c#/	.	8a/	.	8.dd#\L	8.dd#\L	-git	.	.	.	.	.	.	.	.	.	.
8r	.	8r	.	8r	.	8r	.	.	.	.	.	.	.	.	.	.	.	.	.	.
.	.	.	.	.	.	.	.	16cc#\Jk	16cc#\Jk	eum	.	.	.	.	.	.	.	.	.	.
!LO:LB:g=original	!	!LO:LB:g=original	!	!LO:LB:g=original	!	!LO:LB:g=original	!	!LO:LB:g=original	!LO:LB:g=original	!	!	!	!	!	!	!	!LO:LB:g=original	!	!	!
=10	=10	=10	=10	=10	=10	=10	=10	=10	=10	=10	=10	=10	=10	=10	=10	=10	=10	=10	=10	=10
*	*	*	*	*	*	*^	*	*	*	*	*	*	*	*	*	*	*	*	*	*
8D#\	.	8A/	.	8B/	.	4ryy	8f#\	.	4f#/	4f#/	Do-	4r	.	4r	.	4r	.	4r	.	4r	.
8r	.	8r	.	8r	.	.	8r	.	.	.	.	.	.	.	.	.	.	.	.	.	.
.	.	.	.	.	.	.	.	.	16qqa/LL	16qqa/LL	.	.	.	.	.	.	.	.	.	.	.
*	*	*	*	*	*	*v	*v	*	*	*	*	*	*	*	*	*	*	*	*	*	*
*	*	*	*	*rep	*	*	*	*	*	*	*	*	*	*	*	*	*	*	*	*
*	*	*	*	*	*	*^	*	*	*	*	*	*	*	*	*	*	*	*	*	*
!	!	!	!	!	!	!LO:TX:a:t=Clarin&colon;	!	!	!	!	!	!	!	!	!	!	!	!	!	!	!
.	.	.	.	.	.	.	.	.	16qqg#/JJ	16qqg#/JJ	.	.	.	.	.	.	.	.	.	.	.
!	!	!	!	!	!	!	!	!	!	!	!	!	!LO:DY:b:t=p&colon;	!	!LO:DY:b:t=p.	!	!	!	!	!	!
8D#\	.	8F#/	.	8B/	.	8b/L	8f#\	.	4f#/	4f#/	-minus	8B/	p	8f#\	p	8f#/	.	8b\L	.	8bb\L	.
!	!	!	!	!	!	!	!	!	!	!	!	!	!	!	!	!	!	!LO:TX:t=P:problem=niejednoznaczny zapis łuku	!	!	!
8r	.	8r	.	8r	.	(32b/LL	8r	.	.	.	.	8r	.	8r	.	8r	.	(32b\LL	.	(32bb\LL	.
.	.	.	.	.	.	32dd#/	.	.	.	.	.	.	.	.	.	.	.	32dd#\	.	32ddd#\	.
.	.	.	.	.	.	32b/	.	.	.	.	.	.	.	.	.	.	.	32b\	.	32bb\	.
.	.	.	.	.	.	32ff#/JJJ	.	.	.	.	.	.	.	.	.	.	.	32ff#\JJJ)	.	32fff#\JJJ)	.
*	*	*	*	*	*	*v	*v	*	*	*	*	*	*	*	*	*	*	*	*	*	*
*	*	*	*	*Xrep	*	*	*	*	*	*	*	*	*	*	*	*	*	*	*	*
*	*	*	*	*rep	*	*	*	*	*	*	*	*	*	*	*	*	*	*	*	*
*	*	*	*	*	*	*^	*	*	*	*	*	*	*	*	*	*	*	*	*	*
8D#\	.	8F#/	.	8B/	.	8aa/)	8f#\	.	4r	4r	.	8B/	.	8f#\	.	8f#/	.	8aa\	.	8aaa\	.
8r	.	8r	.	8r	.	8r	8r	.	.	.	.	8r	.	8r	.	8r	.	8r	.	8r	.
*	*	*	*	*	*	*v	*v	*	*	*	*	*	*	*	*	*	*	*	*	*	*
*	*	*	*	*Xrep	*	*	*	*	*	*	*	*	*	*	*	*	*	*	*	*
*	*	*	*	*rep	*	*	*	*	*	*	*	*	*	*	*	*	*	*	*	*
*	*	*	*	*	*	*^	*	*	*	*	*	*	*	*	*	*	*	*	*	*
!	!	!	!	!	!	!	!	!	!LO:TX:t=P:problem=8.\right	!	!	!	!	!	!	!	!	!	!	!	!
8D#\	.	8F#/	.	8B/	.	4ryy	8f#\	.	8.b\	8.b\	et	4r	.	4r	.	4r	.	4r	.	4r	.
8r	.	8r	.	8r	.	.	8r	.	.	.	.	.	.	.	.	.	.	.	.	.	.
.	.	.	.	.	.	.	.	.	16b\	16b\	ex-	.	.	.	.	.	.	.	.	.	.
*	*	*	*	*Xrep	*	*	*	*	*	*	*	*	*	*	*	*	*	*	*	*	*
*	*	*	*	*	*	*v	*v	*	*	*	*	*	*	*	*	*	*	*	*	*	*
!	!	!	!	!	!	!	!	!	!	!	!LO:LB:g=original	!	!LO:LB:g=original	!	!	!	!	!	!	!
=11	=11	=11	=11	=11	=11	=11	=11	=11	=11	=11	=11	=11	=11	=11	=11	=11	=11	=11	=11	=11
!	!	!	!	!	!	!	!	!	!	!	!LO:TX:a:t=1.	!	!LO:TX:a:t=1.	!	!LO:TX:a:t=1.	!	!LO:TX:a:t=1.	!	!LO:TX:a:t=1.	!
8E\	.	8G#/	.	8B/	.	8g#/	.	4b\	4b\	-cel-	1r	.	1r	.	1r	.	1r	.	1r	.
8r	.	8r	.	8r	.	8r	.	.	.	.	.	.	.	.	.	.	.	.	.	.
8E\	.	8G#/	.	8B/	.	8g#/	.	8g#\	8g#\	-sum	.	.	.	.	.	.	.	.	.	.
8r	.	8r	.	8r	.	8r	.	16r	16r	.	.	.	.	.	.	.	.	.	.	.
!	!	!	!	!	!	!	!	!	!LO:TX:t=P:problem=niejednoznaczny zapis łuku	!	!	!	!	!	!	!	!	!	!	!
.	.	.	.	.	.	.	.	16g#\	(16g#\	fe-	.	.	.	.	.	.	.	.	.	.
8E\	.	8G#/	.	8B/	.	8g#/	.	(4g#\	4g#\	-cit	.	.	.	.	.	.	.	.	.	.
8r	.	8r	.	8r	.	8r	.	.	.	.	.	.	.	.	.	.	.	.	.	.
.	.	.	.	.	.	.	.	(32qqa/LLL	32qqa/LLL	.	.	.	.	.	.	.	.	.	.	.
.	.	.	.	.	.	.	.	32qqg#/	32qqg#/	.	.	.	.	.	.	.	.	.	.	.
.	.	.	.	.	.	.	.	32qqf##X/	32qqf##X/	.	.	.	.	.	.	.	.	.	.	.
.	.	.	.	.	.	.	.	32qqg#/JJJ)	32qqg#/JJJ	.	.	.	.	.	.	.	.	.	.	.
8E\	.	8A/	.	8c#/	.	8a/	.	8.dd#\L)	8.dd#\L)	il-	.	.	.	.	.	.	.	.	.	.
8r	.	8r	.	8r	.	8r	.	.	.	.	.	.	.	.	.	.	.	.	.	.
.	.	.	.	.	.	.	.	16cc#\Jk	16cc#\Jk	-lum	.	.	.	.	.	.	.	.	.	.
!	!	!	!	!	!	!	!	!	!	!	!	!	!	!	!LO:LB:g=original	!	!	!	!	!
=12	=12	=12	=12	=12	=12	=12	=12	=12	=12	=12	=12	=12	=12	=12	=12	=12	=12	=12	=12	=12
*	*	*	*	*	*	*^	*	*	*	*	*	*	*	*	*	*	*	*	*	*
!	!	!	!	!	!	!LO:TX:a:t=Clar.	!	!	!	!	!	!	!	!	!	!	!	!	!	!	!
8D#\	.	8F#/	.	8B/	.	4ryy	8f#/	.	2f#/	2f#/	pre	2r	.	2r	.	2r	.	4r	.	4r	.
8r	.	8r	.	8r	.	.	8r	.	.	.	.	.	.	.	.	.	.	.	.	.	.
8D#\	.	8F#/	.	8B/	.	8b/L	8f#/	.	.	.	.	.	.	.	.	.	.	8b\L	.	8bb\L	.
!	!	!	!	!	!	!	!	!	!	!	!	!	!	!	!	!	!	!LO:TX:t=P:problem=niejednoznaczny zapis łuku	!	!LO:TX:t=P:problem=niejednoznaczny zapis łuku	!
8r	.	8r	.	8r	.	(32b/LL	8r	.	.	.	.	.	.	.	.	.	.	(32b\LL	.	(32bb\LL	.
.	.	.	.	.	.	32dd#/	.	.	.	.	.	.	.	.	.	.	.	32dd#\	.	32ddd#\	.
.	.	.	.	.	.	32b/	.	.	.	.	.	.	.	.	.	.	.	32b\	.	32bb\	.
.	.	.	.	.	.	32ff#/JJJ	.	.	.	.	.	.	.	.	.	.	.	32ff#\JJJ)	.	32fff#\JJJ)	.
!	!	!	!	!	!	!	!	!	!	!	!	!	!LO:DY:b:t=p&colon;	!	!LO:DY:b:t=p&colon;	!	!	!	!	!	!
8BB\	.	8B/	.	8d#/	.	8aa/)	8f#/	.	8dd#/L	8dd#\L	Re-	8B/	p	8f#\	p	8b\	.	8aa\	.	8aaa\	.
8r	.	8r	.	8r	.	8r	8r	.	(32dd#/LL	(32dd#/LL	.	8r	.	8r	.	8r	.	8r	.	8r	.
.	.	.	.	.	.	.	.	.	32cc#/	32cc#/	.	.	.	.	.	.	.	.	.	.	.
.	.	.	.	.	.	.	.	.	32b/	32b/	.	.	.	.	.	.	.	.	.	.	.
.	.	.	.	.	.	.	.	.	32a/JJJ)	32a/JJJ)	.	.	.	.	.	.	.	.	.	.	.
8BB\	.	8B/	.	8d#/	.	4ryy	8f#/ 8cc#	.	8b/L	8b/L	-gi-	8B/	.	8f#\	.	8b\	.	4r	.	4r	.
8r	.	8r	.	8r	.	.	8r	.	(32b/LL	(32b/LL	-bus	8r	.	8r	.	8r	.	.	.	.	.
.	.	.	.	.	.	.	.	.	32a/	32a/	.	.	.	.	.	.	.	.	.	.	.
.	.	.	.	.	.	.	.	.	32g#/	32g#/	.	.	.	.	.	.	.	.	.	.	.
.	.	.	.	.	.	.	.	.	32f#/JJJ)	32f#/JJJ)	.	.	.	.	.	.	.	.	.	.	.
*	*	*	*	*	*	*v	*v	*	*	*	*	*	*	*	*	*	*	*	*	*	*
!	!	!	!	!	!	!	!	!	!LO:LB:g=original	!	!	!	!	!	!	!	!	!	!	!
=13	=13	=13	=13	=13	=13	=13	=13	=13	=13	=13	=13	=13	=13	=13	=13	=13	=13	=13	=13	=13
!	!	!	!	!	!	!	!	!	!	!	!	!	!	!	!	!	!	!	!LO:TX:a:t=4.	!
8BB/	.	8r	.	8r	.	8r	.	(32e/LLL	(32e/LLL	ter-	8G#/	.	8e\	.	8b\	.	8ee\	.	00r	.
.	.	.	.	.	.	.	.	32f#/	32f#/	.	.	.	.	.	.	.	.	.	.	.
.	.	.	.	.	.	.	.	32g#/	32g#/	.	.	.	.	.	.	.	.	.	.	.
.	.	.	.	.	.	.	.	32a/	32a/	.	.	.	.	.	.	.	.	.	.	.
8r	.	8G#/	.	8B/ 8e	.	8g#/	.	32b/	32b/	.	8r	.	8r	.	8r	.	8r	.	.	.
.	.	.	.	.	.	.	.	32cc#/	32cc#/	.	.	.	.	.	.	.	.	.	.	.
.	.	.	.	.	.	.	.	32dd#/	32dd#/	.	.	.	.	.	.	.	.	.	.	.
.	.	.	.	.	.	.	.	32ee/JJJ)	32ee/JJJ)	.	.	.	.	.	.	.	.	.	.	.
!	!	!	!	!	!	!	!	!LO:TX:t=P:problem=8\right	!	!LO:MO:mod=-rae	!	!	!	!	!	!	!	!	!	!
8BB/	.	8r	.	8r	.	8r	.	8b\	8b\	-re	4r	.	4r	.	4r	.	4r	.	.	.
8r	.	8G#/	.	8B/ 8e	.	8g#/	.	16r	16r	.	.	.	.	.	.	.	.	.	.	.
!	!	!	!	!	!	!	!	!LO:TX:t=P:problem=16\right	!	!	!	!	!	!	!	!	!	!	!	!
.	.	.	.	.	.	.	.	16b\	16b\	pre	.	.	.	.	.	.	.	.	.	.
!	!	!	!	!	!	!	!	!	!LO:TX:t=P:problem=łuk/fermata nad nutą	!	!	!	!	!	!	!	!	!	!	!
8BB/	.	8r	.	8r	.	8r	.	8dd#/L	8dd#\L	Re-	2r	.	2r	.	2r	.	2r	.	.	.
8r	.	8d#\	.	8B/ 8f#	.	8a/	.	(32dd#/LL	(32dd#\LL	.	.	.	.	.	.	.	.	.	.	.
.	.	.	.	.	.	.	.	32cc#/	32cc#\	.	.	.	.	.	.	.	.	.	.	.
.	.	.	.	.	.	.	.	32b/	32b\	.	.	.	.	.	.	.	.	.	.	.
.	.	.	.	.	.	.	.	32a/JJJ)	32a\JJJ)	.	.	.	.	.	.	.	.	.	.	.
8BB/	.	8r	.	8r	.	8r	.	8b/L	8b\L	-gi-	.	.	.	.	.	.	.	.	.	.
8r	.	8d#\	.	8B/ 8f#	.	8a/	.	(32b/LL	(32b\LL	-bus	.	.	.	.	.	.	.	.	.	.
.	.	.	.	.	.	.	.	32a/	32a\	.	.	.	.	.	.	.	.	.	.	.
.	.	.	.	.	.	.	.	32g#/	32g#\	.	.	.	.	.	.	.	.	.	.	.
.	.	.	.	.	.	.	.	32f#/JJJ)	32f#\JJJ)	.	.	.	.	.	.	.	.	.	.	.
!LO:LB:g=original	!	!	!	!LO:LB:g=original	!	!LO:LB:g=original	!	!LO:LB:g=original	!	!	!	!	!	!	!	!	!	!	!	!
=14	=14	=14	=14	=14	=14	=14	=14	=14	=14	=14	=14	=14	=14	=14	=14	=14	=14	=14	=14	=14
!	!	!	!	!	!	!	!	!	!	!	!LO:TX:a:t=3.	!	!LO:TX:a:t=3.	!	!LO:TX:a:t=3.	!	!LO:TX:a:t=3.	!	!	!
8E\	.	8r	.	8r	.	8r	.	(32f#/LLL	(32f#/LLL	ter-	0r	.	0r	.	0r	.	0r	.	.	.
.	.	.	.	.	.	.	.	32e/	32e/	.	.	.	.	.	.	.	.	.	.	.
.	.	.	.	.	.	.	.	32a/	32a/	.	.	.	.	.	.	.	.	.	.	.
.	.	.	.	.	.	.	.	32g#/	32g#/	.	.	.	.	.	.	.	.	.	.	.
8r	.	8G#/	.	8B/ 8e	.	8g#/	.	32cc#/	32cc#/	.	.	.	.	.	.	.	.	.	.	.
.	.	.	.	.	.	.	.	32b/	32b/	.	.	.	.	.	.	.	.	.	.	.
.	.	.	.	.	.	.	.	32ee/	32ee/	.	.	.	.	.	.	.	.	.	.	.
.	.	.	.	.	.	.	.	32cc#/JJJ)	32cc#/JJJ)	.	.	.	.	.	.	.	.	.	.	.
!	!	!	!	!	!	!	!	!	!	!LO:MO:mod=-rae	!	!	!	!	!	!	!	!	!	!
8E\	.	8r	.	8r	.	8r	.	8b\	8b\	-re	.	.	.	.	.	.	.	.	.	.
8r	.	8G#/	.	8B/ 8e	.	8g#/	.	8r	8r	.	.	.	.	.	.	.	.	.	.	.
4AA/	.	8r	.	8r	.	8r	.	8cc#\	8cc#\	glo-	.	.	.	.	.	.	.	.	.	.
.	.	8A/	.	8c#/	.	8cc#\	.	8r	8r	.	.	.	.	.	.	.	.	.	.	.
4GG#/	.	8r	.	8r	.	8r	.	8.b#X\	8.b#X\	-ri-	.	.	.	.	.	.	.	.	.	.
!	!	!	!	!	!	!LO:TX:t=P:problem=8\right	!	!	!	!	!	!	!	!	!	!	!	!	!	!
.	.	8G#/	.	8B#X/	.	8b#X\	.	.	.	.	.	.	.	.	.	.	.	.	.	.
.	.	.	.	.	.	.	.	16b#\	16b#\	-fi-	.	.	.	.	.	.	.	.	.	.
!	!	!LO:LB:g=original	!	!	!	!	!	!	!	!	!	!	!	!	!	!	!	!	!	!
=15	=15	=15	=15	=15	=15	=15	=15	=15	=15	=15	=15	=15	=15	=15	=15	=15	=15	=15	=15	=15
4AA/	.	8r	.	8r	.	8r	.	8.cc#\	8.cc#\	-ca-	.	.	.	.	.	.	.	.	.	.
.	.	8A/	.	8c#/	.	8cc#\	.	.	.	.	.	.	.	.	.	.	.	.	.	.
.	.	.	.	.	.	.	.	16cc#\	16cc#\	-vit	.	.	.	.	.	.	.	.	.	.
4GGn/	.	8r	.	4Bn/	.	8r	.	8.bn\	8.bn\	e-	.	.	.	.	.	.	.	.	.	.
.	.	8Gn/	.	.	.	8bn\	.	.	.	.	.	.	.	.	.	.	.	.	.	.
.	.	.	.	.	.	.	.	16b\	16b\	-um	.	.	.	.	.	.	.	.	.	.
!	!	!	!	!	!	!	!	!LO:TX:t=P:problem=8\right	!LO:LB:g=original	!	!	!	!	!	!	!	!	!	!	!
4FF#/	.	8r	.	4c#/	.	8r	.	8a#X\	8a#y\	glo-	.	.	.	.	.	.	.	.	.	.
!	!	!	!	!	!	!	!	!LO:TX:t=P:problem=16\right	!	!	!	!	!	!	!	!	!	!	!	!
.	.	8F#/	.	.	.	8a#X\	.	16a#\	16a#\	-ri-	.	.	.	.	.	.	.	.	.	.
!	!	!	!	!	!	!	!	!LO:TX:t=P:problem=16\right	!	!	!	!	!	!	!	!	!	!	!	!
.	.	.	.	.	.	.	.	16a#\	16a#\	-fi-	.	.	.	.	.	.	.	.	.	.
4BB#X/	.	8r	.	4d#/	.	8r	.	8.an\	8.an\	-ca-	.	.	.	.	.	.	.	.	.	.
.	.	8B#X/	.	.	.	8an\	.	.	.	.	.	.	.	.	.	.	.	.	.	.
.	.	.	.	.	.	.	.	16a\	16a\	-vit	.	.	.	.	.	.	.	.	.	.
=16	=16	=16	=16	=16	=16	=16	=16	=16	=16	=16	=16	=16	=16	=16	=16	=16	=16	=16	=16	=16
*	*	*	*	*	*	*	*	*Xtuplet	*	*	*	*	*	*	*	*	*	*	*	*
!	!	!	!	!	!	!	!	!LO:TX:t=P:problem=24\right	!	!	!	!	!	!	!	!	!	!	!	!
!LO:TX:a:i:t=colla voce	!	!LO:TX:a:i:t=colla voce	!	!	!	!	!	!LO:TX:t=P:global:problem=triola bez numeru i łuku	!LO:TX:t=P:global:problem=triola bez numeru i łuku	!	!	!	!	!	!	!	!	!	!	!
8C#/	.	8c#\L	.	8r	.	8r	.	24g#\LL	24g#\LL	e-	1r	.	1r	.	1r	.	1r	.	.	.
.	.	.	.	.	.	.	.	24gg#\	24gg#\	.	.	.	.	.	.	.	.	.	.	.
.	.	.	.	.	.	.	.	24dd#\JJ	24dd#\JJ	.	.	.	.	.	.	.	.	.	.	.
!	!	!	!	!LO:TX:a:i:t=collo voce	!	!	!	!	!	!	!	!	!	!	!	!	!	!	!	!
8r	.	8e\J	.	8e/	.	8g#\	.	24ff#\LL	24ff#\LL	.	.	.	.	.	.	.	.	.	.	.
.	.	.	.	.	.	.	.	24ee\	24ee\	.	.	.	.	.	.	.	.	.	.	.
.	.	.	.	.	.	.	.	24b#X\JJ	24b#X\JJ	.	.	.	.	.	.	.	.	.	.	.
8AA/	.	8r	.	8r	.	8r	.	24dd#\LL	24dd#\LL	.	.	.	.	.	.	.	.	.	.	.
.	.	.	.	.	.	.	.	24cc#\	24cc#\	.	.	.	.	.	.	.	.	.	.	.
.	.	.	.	.	.	.	.	24g#\JJ	24g#\JJ	.	.	.	.	.	.	.	.	.	.	.
8r	.	8c#\	.	8f#/	.	8a\	.	24bn\LL	24bn\LL	.	.	.	.	.	.	.	.	.	.	.
.	.	.	.	.	.	.	.	24a\	24a\	.	.	.	.	.	.	.	.	.	.	.
.	.	.	.	.	.	.	.	24f#\JJ	24f#\JJ	.	.	.	.	.	.	.	.	.	.	.
!	!	!	!	!	!	!	!	!LO:TX:t=P:4\right:problem	!	!	!	!	!	!	!	!	!	!	!	!
8BB/	.	8r	.	8r	.	8r	.	4e\	4e\	.	.	.	.	.	.	.	.	.	.	.
!	!	!LO:TX:b:t=h	!	!	!	!	!	!	!	!	!	!	!	!	!	!	!	!	!	!
8r	.	8B\	.	8e/	.	8e/	.	.	.	.	.	.	.	.	.	.	.	.	.	.
!	!	!	!	!	!	!	!	!LO:TX:t=P:4\right:problem	!	!	!	!	!	!	!	!	!	!	!	!
8BB/	.	8r	.	8r	.	8r	.	4f#T\	4f#T\	.	.	.	.	.	.	.	.	.	.	.
!	!	!LO:TX:b:t=h	!	!	!	!	!	!	!	!	!	!	!	!	!	!	!	!LO:DY:b	!	!
8r	.	8B\	.	8d#/	.	8f#/	.	.	.	.	.	.	.	.	.	.	.	f	.	.
=17	=17	=17	=17	=17	=17	=17	=17	=17	=17	=17	=17	=17	=17	=17	=17	=17	=17	=17	=17	=17
8E\	.	8G#/	.	8e/	.	8e/	.	8e/	8e/	-um	8r	.	8r	.	8r	.	8r	.	8r	.
!	!	!	!	!LO:N:vis=8..	!	!	!	!	!	!	!	!	!	!	!	!	!	!	!	!
8.r	.	8.r	.	8.r	.	8.r	.	8r	8r	.	8.r	.	8.r	.	8.r	.	8.r	.	8.r	.
.	.	.	.	.	.	.	.	8r	8r	.	.	.	.	.	.	.	.	.	.	.
!	!	!	!	!	!	!	!	!	!	!	!	!LO:DY:b:t=p&colon;	!	!LO:DY:b:t=p&colon;	!	!	!	!	!	!
16AA#X/	.	16A#X/	.	16cc#\	.	16ccc#\	.	.	.	.	16E/	p	16e\	p	16ee\	.	16ggn\	.	16ccc#\	.
*	*	*	*	*	*	*	*	*tuplet	*tuplet	*	*	*	*	*	*	*	*	*	*	*
!	!	!	!	!	!	!	!	!LO:TX:t=P:problem=w tt. 18-21 caudy zmiennie	!	!	!	!	!	!	!	!	!	!	!	!
!	!	!	!	!	!	!	!	!LO:TX:t=P:problem=klamra łukowa z numerem	!LO:TX:t=P:problem=klamra łukowa z numerem	!	!	!	!	!	!	!	!	!	!	!
8AA#/	.	8A#/	.	8cc#\	.	8ccc#\	.	24cc#\LL	24cc#\LL	in	8E/	.	8e\	.	8ee\	.	8gg\	.	8ccc#\	.
.	.	.	.	.	.	.	.	24dd#\JJ	24dd#\JJ	.	.	.	.	.	.	.	.	.	.	.
.	.	.	.	.	.	.	.	24ee\	24ee\	.	.	.	.	.	.	.	.	.	.	.
*	*	*	*	*	*	*	*	*Xtuplet	*Xtuplet	*	*	*	*	*	*	*	*	*	*	*
8BB/	.	8G#/	.	8r	.	8r	.	8ee\L	8ee\	con-	2r	.	2r	.	2r	.	2r	.	2r	.
8r	.	8r	.	8B/	.	8g#/	.	8b\J	8b\	-spe-	.	.	.	.	.	.	.	.	.	.
!	!	!	!	!	!	!	!	!LO:N:vis=4	!	!	!	!	!	!	!	!	!	!	!	!
!	!	!	!	!	!	!	!	!LO:TX:t=P:problem=8\right	!	!	!	!	!	!	!	!	!	!	!	!
8BB/	.	8F#/	.	8r	.	8r	.	8b\	8b\	-ctu	.	.	.	.	.	.	.	.	.	.
.	.	.	.	.	.	.	.	32qqcc#/LLL	32qqcc#/LLL	.	.	.	.	.	.	.	.	.	.	.
.	.	.	.	.	.	.	.	32qqb/	32qqb/	.	.	.	.	.	.	.	.	.	.	.
.	.	.	.	.	.	.	.	32qqa#X/	32qqa#X/	.	.	.	.	.	.	.	.	.	.	.
.	.	.	.	.	.	.	.	32qqb/JJJ	32qqb/JJJ	.	.	.	.	.	.	.	.	.	.	.
8r	.	8r	.	8B/	.	8f#/	.	16cc#\LL	16cc#\	Re-	.	.	.	.	.	.	.	.	.	.
.	.	.	.	.	.	.	.	16dd#\JJ	16dd#\	-gum	.	.	.	.	.	.	.	.	.	.
!	!	!	!	!	!	!LO:LB:g=original	!	!LO:LB:g=original	!LO:LB:g=original	!	!	!	!	!	!	!	!LO:LB:g=original	!	!LO:LB:g=original	!
=18	=18	=18	=18	=18	=18	=18	=18	=18	=18	=18	=18	=18	=18	=18	=18	=18	=18	=18	=18	=18
!	!	!	!	!	!	!	!	!	!	!	!LO:TX:a:t=2.	!	!LO:TX:a:t=2.	!	!LO:TX:a:t=2.	!	!LO:TX:a:t=2.	!	!LO:TX:a:t=2.	!
8EE/	.	8r	.	8r	.	8r	.	(8ee\L	(8ee\L	glo-	0r	.	0r	.	0r	.	0r	.	0r	.
8r	.	8G#/	.	8e/	.	8g#/	.	8gg#\J)	8gg#\J)	.	.	.	.	.	.	.	.	.	.	.
8AA/	.	8r	.	8r	.	8r	.	8cc#\	8cc#\	-ri-	.	.	.	.	.	.	.	.	.	.
8r	.	8A/	.	8f#/	.	8a/	.	8ff#\	8ff#\	-fi-	.	.	.	.	.	.	.	.	.	.
8BB/	.	8r	.	8r	.	8r	.	8b\	8b\	-ca-	.	.	.	.	.	.	.	.	.	.
8r	.	8B/	.	8g#/	.	8b/	.	8ee\	8ee\	-vit	.	.	.	.	.	.	.	.	.	.
8BB/	.	8r	.	8r	.	8r	.	8b\	8b\	e-	.	.	.	.	.	.	.	.	.	.
8r	.	8A/	.	8f#/	.	8a/	.	8dd#\	8dd#\	-um	.	.	.	.	.	.	.	.	.	.
!LO:LB:g=original	!	!LO:LB:g=original	!	!LO:LB:g=original	!	!	!	!	!	!	!	!	!	!	!	!	!	!	!	!
=19	=19	=19	=19	=19	=19	=19	=19	=19	=19	=19	=19	=19	=19	=19	=19	=19	=19	=19	=19	=19
8EE/	.	8r	.	8r	.	8r	.	8ee\	8ee\	in	.	.	.	.	.	.	.	.	.	.
8r	.	8G#/	.	8e/	.	8g#/	.	8gg#\	8gg#\	con-	.	.	.	.	.	.	.	.	.	.
8AA/	.	8r	.	8r	.	8r	.	8cc#\	8cc#\	-spec-	.	.	.	.	.	.	.	.	.	.
8r	.	8A/	.	8f#/	.	8a/	.	8ff#\	8ff#\	-tu	.	.	.	.	.	.	.	.	.	.
!	!	!	!	!	!	!	!	!LO:TX:t=P:problem=skreślone dźwięki	!	!	!	!	!	!	!	!	!	!	!	!
8BB/	.	8r	.	8r	.	8r	.	8b\	8b\	Re-	.	.	.	.	.	.	.	.	.	.
8r	.	8e\	.	8g#/	.	8b/	.	8b\	8b\	-gum	.	.	.	.	.	.	.	.	.	.
8BB/	.	8r	.	8r	.	8r	.	8r	8r	.	.	.	.	.	.	.	.	.	.	.
8r	.	8e\	.	8g#/	.	8b\	.	8b\	8b\	et	.	.	.	.	.	.	.	.	.	.
=20	=20	=20	=20	=20	=20	=20	=20	=20	=20	=20	=20	=20	=20	=20	=20	=20	=20	=20	=20	=20
4BB/	.	4F#/ 4A	.	4B/	.	4b\	.	4bb\	4bb\	non	2r	.	2r	.	2r	.	2r	.	2r	.
!	!	!	!	!	!	!	!	!LO:TX:t=P:problem=grupa zapisana jako sekstola [bez numeru i łuku]	!LO:TX:t=P:problem=grupa zapisana jako sekstola [bez numeru i łuku]	!	!	!	!	!	!	!	!	!	!	!
4r	.	4r	.	4r	.	4r	.	24aa\LL	24aa\LL	.	.	.	.	.	.	.	.	.	.	.
.	.	.	.	.	.	.	.	24gg#\	24gg#\	.	.	.	.	.	.	.	.	.	.	.
.	.	.	.	.	.	.	.	24ff#\	24ff#\	.	.	.	.	.	.	.	.	.	.	.
.	.	.	.	.	.	.	.	24ee\	24ee\	.	.	.	.	.	.	.	.	.	.	.
.	.	.	.	.	.	.	.	24dd#\	24dd#\	.	.	.	.	.	.	.	.	.	.	.
.	.	.	.	.	.	.	.	24cc#\JJ	24cc#\JJ	.	.	.	.	.	.	.	.	.	.	.
2r;	.	2r;	.	2r;	.	2r;	.	4b;\	4b;\	.	2r;	.	2r;	.	2r;	.	2r;	.	2r;	.
.	.	.	.	.	.	.	.	24d#/LL	24d#/LL	con-	.	.	.	.	.	.	.	.	.	.
.	.	.	.	.	.	.	.	24f#/	24f#/	.	.	.	.	.	.	.	.	.	.	.
.	.	.	.	.	.	.	.	24a/JJ	24a/JJ	-fun-	.	.	.	.	.	.	.	.	.	.
.	.	.	.	.	.	.	.	(16cc#\LL	(16cc#\LL	-de-	.	.	.	.	.	.	.	.	.	.
.	.	.	.	.	.	.	.	16b\JJ)	16b\JJ)	.	.	.	.	.	.	.	.	.	.	.
!	!	!	!	!	!	!	!	!	!LO:LB:g=original	!	!LO:LB:g=original	!	!LO:LB:g=original	!	!	!	!	!	!	!
=21||	=21||	=21||	=21||	=21||	=21||	=21||	=21||	=21||	=21||	=21||	=21||	=21||	=21||	=21||	=21||	=21||	=21||	=21||	=21||	=21||
*	*	*tremolo	*	*tremolo	*	*	*	*	*	*	*	*	*	*	*	*	*	*	*	*
!LO:TX:a:B:t=Allegro.	!	!	!	!	!	!	!	!	!	!	!	!	!	!	!	!	!	!	!	!
!LO:TX:t=P:problem=mixed beam	!LO:DY:b	!LO:TX:a:B:t=Allegro	!	!LO:TX:a:B:t=Allegro	!LO:DY:b:t=fo&colon;	!LO:TX:a:B:t=allegro.	!	!	!LO:TX:a:B:t=Allegro	!	!LO:TX:a:B:t=Allegro	!LO:DY:b:t=f&colon;	!LO:TX:a:B:t=Allegro	!LO:DY:b	!LO:TX:a:B:t=Allegro	!LO:DY:b	!LO:TX:a:B:t=Allegro	!	!LO:TX:a:B:t=Allegro	!
8EE\L	ff	16e\LL	.	16B 16g#LL	f	4ee\	.	4e/	4e/	-tur	4E/	f	4e\	f	4ee\	ff	4gg#\	.	4ee\	.
.	.	16e\	.	16B 16g#	.	.	.	.	.	.	.	.	.	.	.	.	.	.	.	.
8E\	.	16e\	.	16B 16g#	.	.	.	.	.	.	.	.	.	.	.	.	.	.	.	.
.	.	16e\	.	16B 16g#	.	.	.	.	.	.	.	.	.	.	.	.	.	.	.	.
8E\	.	16e\	.	16B 16g#	.	8.ee\L	.	4r	4r	.	4E/	.	4e\	.	8.ee\L	.	8.gg#\L	.	8.ee\L	.
.	.	16e\	.	16B 16g#	.	.	.	.	.	.	.	.	.	.	.	.	.	.	.	.
8E\J	.	16e\	.	16B 16g#	.	.	.	.	.	.	.	.	.	.	.	.	.	.	.	.
.	.	16e\JJ	.	16B 16g#	.	16ff#\Jk	.	.	.	.	.	.	.	.	16ee\Jk	.	16gg#\Jk	.	16ff#\Jk	.
*tremolo	*	*	*	*	*	*	*	*	*	*	*	*	*	*	*	*	*	*	*	*
8E\L	.	16e\LL	.	16B 16g#	.	8.gg#\L	.	2r	2r	.	4E/	.	4e\	.	4ee\	.	4gg#\	.	8.gg#\L	.
.	.	16e\	.	16B 16g#	.	.	.	.	.	.	.	.	.	.	.	.	.	.	.	.
8E\	.	16e\	.	16B 16g#	.	.	.	.	.	.	.	.	.	.	.	.	.	.	.	.
.	.	16e\	.	16B 16g#	.	16aa\Jk	.	.	.	.	.	.	.	.	.	.	.	.	16aa\Jk	.
!	!	!	!	!	!	!LO:TX:t=P:\right:problem	!	!	!	!	!	!	!	!	!	!	!	!	!	!
8E\	.	16e\	.	16B 16g#	.	[4bb\	.	.	.	.	4E/	.	4e\	.	4ee\	.	4gg#\	.	[4bb\	.
.	.	16e\	.	16B 16g#	.	.	.	.	.	.	.	.	.	.	.	.	.	.	.	.
8E\J	.	16e\	.	16B 16g#	.	.	.	.	.	.	.	.	.	.	.	.	.	.	.	.
.	.	16e\JJ	.	16B 16g#JJ	.	.	.	.	.	.	.	.	.	.	.	.	.	.	.	.
!	!	!	!	!	!	!LO:LB:g=original	!	!	!	!	!	!	!	!	!	!	!	!	!	!
=22	=22	=22	=22	=22	=22	=22	=22	=22	=22	=22	=22	=22	=22	=22	=22	=22	=22	=22	=22	=22
!	!	!	!	!	!	!	!	!	!LO:TX:a:t=6.	!	!	!	!	!	!	!	!	!	!	!
8E\L	.	16eLL	.	16B 16gnLL	.	4bb\]	.	1ryy	00r	.	4E/	.	4e\	.	4ee\	.	4ggn\	.	4bb\]	.
.	.	16e	.	16B 16gn	.	.	.	.	.	.	.	.	.	.	.	.	.	.	.	.
8E\	.	16e	.	16B 16gn	.	.	.	.	.	.	.	.	.	.	.	.	.	.	.	.
.	.	16e	.	16B 16gn	.	.	.	.	.	.	.	.	.	.	.	.	.	.	.	.
8E\	.	16e	.	16B 16gn	.	8.ee\L	.	.	.	.	4E/	.	4e\	.	8.ee\L	.	8.gg\L	.	8.ee\L	.
.	.	16e	.	16B 16gn	.	.	.	.	.	.	.	.	.	.	.	.	.	.	.	.
8E\J	.	16e	.	16B 16gn	.	.	.	.	.	.	.	.	.	.	.	.	.	.	.	.
.	.	16e	.	16B 16gn	.	16ff#\Jk	.	.	.	.	.	.	.	.	16ee\Jk	.	16gg\Jk	.	16ff#\Jk	.
!	!	!	!	!	!	!LO:TX:t=P:\right:problem	!	!	!	!	!	!	!	!	!	!	!	!	!	!
8E\L	.	16e	.	16B 16gn	.	8.ggn\L	.	.	.	.	4E/	.	4e\	.	4ee\	.	4gg\	.	8.ggn\L	.
.	.	16e	.	16B 16gn	.	.	.	.	.	.	.	.	.	.	.	.	.	.	.	.
8E\	.	16e	.	16B 16gn	.	.	.	.	.	.	.	.	.	.	.	.	.	.	.	.
.	.	16e	.	16B 16gn	.	16aa\Jk	.	.	.	.	.	.	.	.	.	.	.	.	16aa\Jk	.
!	!	!	!	!	!	!LO:TX:t=P:\right:problem	!	!	!	!	!	!	!	!	!	!	!	!	!	!
8E\	.	16e	.	16B 16gn	.	4bb\	.	.	.	.	4E/	.	4e\	.	4ee\	.	4gg\	.	4bb\	.
.	.	16e	.	16B 16gn	.	.	.	.	.	.	.	.	.	.	.	.	.	.	.	.
8E\J	.	16e	.	16B 16gn	.	.	.	.	.	.	.	.	.	.	.	.	.	.	.	.
.	.	16eJJ	.	16B 16gnJJ	.	.	.	.	.	.	.	.	.	.	.	.	.	.	.	.
!	!	!	!	!	!	!	!	!	!	!	!	!	!	!	!LO:LB:g=original	!	!	!	!	!
=23	=23	=23	=23	=23	=23	=23	=23	=23	=23	=23	=23	=23	=23	=23	=23	=23	=23	=23	=23	=23
!	!	!	!	!	!	!	!	!	!	!	!	!	!LO:SIC:s=4fn	!	!	!	!	!	!	!
8Dn\L	.	16BLL	.	1Gn 1fn	.	4bb\	.	1ryy	.	.	4B/	.	4f#\	.	4ddn\	.	4ggn\	.	4bb\	.
.	.	16B	.	.	.	.	.	.	.	.	.	.	.	.	.	.	.	.	.	.
8Dn\	.	16B	.	.	.	.	.	.	.	.	.	.	.	.	.	.	.	.	.	.
.	.	16B	.	.	.	.	.	.	.	.	.	.	.	.	.	.	.	.	.	.
!	!	!	!	!	!	!	!	!	!	!	!	!	!LO:SIC:s=4fn	!	!	!	!	!	!	!
8Dn\	.	16B	.	.	.	8.ggn\L	.	.	.	.	4B/	.	4f#\	.	4dd\	.	4gg\	.	8.ggn\L	.
.	.	16B	.	.	.	.	.	.	.	.	.	.	.	.	.	.	.	.	.	.
8Dn\J	.	16B	.	.	.	.	.	.	.	.	.	.	.	.	.	.	.	.	.	.
.	.	16B	.	.	.	16aa\Jk	.	.	.	.	.	.	.	.	.	.	.	.	16aa\Jk	.
!	!	!	!	!	!	!	!	!	!	!	!	!	!LO:SIC:s=4fn	!	!	!	!	!	!	!
8D\L	.	16B	.	.	.	8.bb\L	.	.	.	.	4B/	.	4f#\	.	4dd\	.	4gg\	.	8.bb\L	.
.	.	16B	.	.	.	.	.	.	.	.	.	.	.	.	.	.	.	.	.	.
8D\	.	16B	.	.	.	.	.	.	.	.	.	.	.	.	.	.	.	.	.	.
.	.	16B	.	.	.	16cccn\Jk	.	.	.	.	.	.	.	.	.	.	.	.	16cccn\Jk	.
!	!	!	!	!	!	!	!	!	!	!	!	!	!LO:SIC:s=4fn	!	!	!	!	!	!	!
8D\	.	16B	.	.	.	4dddn\	.	.	.	.	4B/	.	4f#\	.	4dd\	.	4gg\	.	4dddn\	.
.	.	16B	.	.	.	.	.	.	.	.	.	.	.	.	.	.	.	.	.	.
8D\J	.	16B	.	.	.	.	.	.	.	.	.	.	.	.	.	.	.	.	.	.
.	.	16BJJ	.	.	.	.	.	.	.	.	.	.	.	.	.	.	.	.	.	.
=24	=24	=24	=24	=24	=24	=24	=24	=24	=24	=24	=24	=24	=24	=24	=24	=24	=24	=24	=24	=24
8Cn\L	.	16cnLL	.	16Gn/ 16eLL	.	16eee'\LL	.	1ryy	.	.	4E/	.	4e\	.	4ee\	.	4ee\	.	4eee\	.
.	.	16cn	.	16Gn/ 16e	.	16eee'\	.	.	.	.	.	.	.	.	.	.	.	.	.	.
8Cn\	.	16cn	.	16Gn/ 16e	.	16eee'\	.	.	.	.	.	.	.	.	.	.	.	.	.	.
.	.	16cn	.	16Gn/ 16e	.	16eee'\JJ	.	.	.	.	.	.	.	.	.	.	.	.	.	.
*	*	*	*	*	*	*tremolo	*	*	*	*	*	*	*	*	*	*	*	*	*	*
!	!	!	!	!	!	!LO:TX:t=P:problem=kropki nad tremolo [ilość nut / staccato] w tt. 25-26	!	!	!	!	!	!	!	!	!	!	!	!	!	!
8Cn\	.	16cn	.	16Gn/ 16e	.	16eee\LL	.	.	.	.	4E/	.	4e\	.	8ee\L	.	8ee\L	.	4eee\	.
.	.	16cn	.	16Gn/ 16e	.	16eee\	.	.	.	.	.	.	.	.	.	.	.	.	.	.
8Cn\J	.	16cn	.	16Gn/ 16e	.	16eee\	.	.	.	.	.	.	.	.	8ee\J	.	8ff#\J	.	.	.
.	.	16cn	.	16Gn/ 16eJJ	.	16eee\JJ	.	.	.	.	.	.	.	.	.	.	.	.	.	.
8C\L	.	16cn	.	16e/LL	.	16eee\LL	.	.	.	.	4E/	.	4e\	.	4ee\	.	8ggn\L	.	4eee\	.
.	.	16cn	.	16e/	.	16eee\	.	.	.	.	.	.	.	.	.	.	.	.	.	.
8C\	.	16cn	.	16e/	.	16eee\	.	.	.	.	.	.	.	.	.	.	8gg#X\	.	.	.
.	.	16cn	.	16e/	.	16eee\JJ	.	.	.	.	.	.	.	.	.	.	.	.	.	.
8C\	.	16cn	.	16e/	.	16eee\LL	.	.	.	.	4E/	.	4e\	.	4ee\	.	8aa\	.	4eee\	.
.	.	16cn	.	16e/	.	16eee\	.	.	.	.	.	.	.	.	.	.	.	.	.	.
8C\J	.	16cn	.	16e/	.	16eee\	.	.	.	.	.	.	.	.	.	.	8aa#X\J	.	.	.
.	.	16cnJJ	.	16e/JJ	.	16eee\JJ	.	.	.	.	.	.	.	.	.	.	.	.	.	.
*Xtremolo	*	*Xtremolo	*	*	*	*	*	*	*	*	*	*	*	*	*	*	*	*	*	*
!LO:LB:g=original	!	!LO:LB:g=original	!	!	!	!	!	!	!	!	!	!	!	!	!	!	!LO:LB:g=original	!	!	!
=25	=25	=25	=25	=25	=25	=25	=25	=25	=25	=25	=25	=25	=25	=25	=25	=25	=25	=25	=25	=25
8BB\L	.	8.B\L 8.f#	.	16f#/ 16bLL	.	16ddd#X\LL	.	1ryy	.	.	4B/	.	4f#\	.	4ff#\	.	4bb\	.	4ddd#X\	.
.	.	.	.	16f#/ 16b	.	16ddd#X\	.	.	.	.	.	.	.	.	.	.	.	.	.	.
8D#\	.	.	.	16f#/ 16b	.	16ddd#X\	.	.	.	.	.	.	.	.	.	.	.	.	.	.
.	.	16B\Jk 16f#	.	16f#/ 16b	.	16ddd#X\	.	.	.	.	.	.	.	.	.	.	.	.	.	.
8F#\	.	8.B\L 8.f#	.	16f#/ 16b	.	16ddd#X\	.	.	.	.	4B/	.	4f#\	.	4ff#\	.	4bb\	.	4ddd#\	.
.	.	.	.	16f#/ 16b	.	16ddd#X\	.	.	.	.	.	.	.	.	.	.	.	.	.	.
8D#\J	.	.	.	16f#/ 16b	.	16ddd#X\	.	.	.	.	.	.	.	.	.	.	.	.	.	.
.	.	16B\Jk 16f#	.	16f#/ 16bJJ	.	16ddd#X\JJ	.	.	.	.	.	.	.	.	.	.	.	.	.	.
8BB\L	.	8.B\L 8.e	.	16gn/ 16bLL	.	16eee\LL	.	.	.	.	4B/	.	4f#\	.	4ggn\	.	4bb\	.	4eee\	.
.	.	.	.	16gn/ 16b	.	16eee\	.	.	.	.	.	.	.	.	.	.	.	.	.	.
8E\	.	.	.	16gn/ 16b	.	16eee\	.	.	.	.	.	.	.	.	.	.	.	.	.	.
.	.	16B\K 16e	.	16gn/ 16b	.	16eee\	.	.	.	.	.	.	.	.	.	.	.	.	.	.
8Gn\	.	8.B\ 8.e	.	16gn/ 16b	.	16eee\	.	.	.	.	4B/	.	4f#\	.	4gg\	.	4bb\	.	4eee\	.
.	.	.	.	16gn/ 16b	.	16eee\	.	.	.	.	.	.	.	.	.	.	.	.	.	.
8E\J	.	.	.	16gn/ 16b	.	16eee\	.	.	.	.	.	.	.	.	.	.	.	.	.	.
.	.	16B\Jk 16e	.	16gn/ 16bJJ	.	16eee\JJ	.	.	.	.	.	.	.	.	.	.	.	.	.	.
!	!	!	!	!	!	!	!	!	!	!	!	!	!	!	!	!	!	!	!LO:LB:g=original	!
=26	=26	=26	=26	=26	=26	=26	=26	=26	=26	=26	=26	=26	=26	=26	=26	=26	=26	=26	=26	=26
*	*	*	*	*	*	*	*	*	*	*	*rep	*	*rep	*	*	*	*	*	*	*
8BB\L	.	8.B\L 8.f#	.	16f#/ 16bLL	.	16ddd#\LL	.	1ryy	0r	.	4B/	.	4f#\	.	4ff#\	.	4bb\	.	4ddd#\	.
.	.	.	.	16f#/ 16b	.	16ddd#\	.	.	.	.	.	.	.	.	.	.	.	.	.	.
8D#\	.	.	.	16f#/ 16b	.	16ddd#\	.	.	.	.	.	.	.	.	.	.	.	.	.	.
.	.	16B\Jk 16f#	.	16f#/ 16b	.	16ddd#\	.	.	.	.	.	.	.	.	.	.	.	.	.	.
8F#\	.	8.B\L 8.f#	.	16f#/ 16b	.	16ddd#\	.	.	.	.	4B/	.	4f#\	.	4ff#\	.	4bb\	.	4ddd#\	.
.	.	.	.	16f#/ 16b	.	16ddd#\	.	.	.	.	.	.	.	.	.	.	.	.	.	.
8D#\J	.	.	.	16f#/ 16b	.	16ddd#\	.	.	.	.	.	.	.	.	.	.	.	.	.	.
.	.	16B\Jk 16f#	.	16f#/ 16bJJ	.	16ddd#\JJ	.	.	.	.	.	.	.	.	.	.	.	.	.	.
8BB\L	.	8.B\L 8.e	.	16gn/ 16bLL	.	16eee\LL	.	.	.	.	4B/	.	4f#\	.	4ggn\	.	4bb\	.	4eee\	.
.	.	.	.	16gn/ 16b	.	16eee\	.	.	.	.	.	.	.	.	.	.	.	.	.	.
8E\	.	.	.	16gn/ 16b	.	16eee\	.	.	.	.	.	.	.	.	.	.	.	.	.	.
.	.	16B\Jk 16e	.	16gn/ 16b	.	16eee\	.	.	.	.	.	.	.	.	.	.	.	.	.	.
8Gn\	.	8.B\L 8.e	.	16gn/ 16b	.	16eee\	.	.	.	.	4B/	.	4f#\	.	4gg\	.	4bb\	.	4eee\	.
.	.	.	.	16gn/ 16b	.	16eee\	.	.	.	.	.	.	.	.	.	.	.	.	.	.
8E\J	.	.	.	16gn/ 16b	.	16eee\	.	.	.	.	.	.	.	.	.	.	.	.	.	.
.	.	16B\Jk 16e	.	16gn/ 16bJJ	.	16eee\JJ	.	.	.	.	.	.	.	.	.	.	.	.	.	.
*	*	*	*	*	*	*	*	*	*	*	*Xrep	*	*Xrep	*	*	*	*	*	*	*
*	*	*	*	*Xtremolo	*	*Xtremolo	*	*	*	*	*	*	*	*	*	*	*	*	*	*
!	!	!	!	!LO:LB:g=original	!	!LO:LB:g=original	!	!	!	!	!	!	!LO:LB:g=original	!	!	!	!	!	!	!
=27	=27	=27	=27	=27	=27	=27	=27	=27	=27	=27	=27	=27	=27	=27	=27	=27	=27	=27	=27	=27
4BB/	.	4B\ 4f#	.	4f#/ 4b	.	4ddd#\	.	1ryy	.	.	4B/	.	4f#\	.	4ff#\	.	4bb\	.	4ddd#\	.
8.r	.	8.r	.	8.r	.	8.r	.	.	.	.	8.r	.	8.r	.	8.r	.	8.r	.	8.r	.
16BB/	.	16B\	.	16f#\ 16dd#	.	16bb\	.	.	.	.	16B/	.	16f#\	.	16dd#\	.	16ff#\	.	16bb\	.
4BB/	.	4B\	.	4f#\ 4dd#	.	4bb\	.	.	.	.	4B/	.	4f#\	.	4dd#\	.	4ff#\	.	4bb\	.
8.r	.	8.r	.	8.r	.	8.r	.	.	.	.	8.r	.	8.r	.	8.r	.	8.r	.	8.r	.
16BB/	.	16B\	.	16B/	.	16b\	.	.	.	.	16B/	.	16f#\	.	16b\	.	16b\	.	16b\	.
!	!	!	!	!	!	!	!	!	!	!	!LO:LB:g=original	!	!	!	!	!	!	!	!	!
=28	=28	=28	=28	=28	=28	=28	=28	=28	=28	=28	=28	=28	=28	=28	=28	=28	=28	=28	=28	=28
2BB/	.	2B\	.	2B/	.	2b\	.	1ryy	1r;	.	2B/	.	2f#\	.	2b\	.	2b\	.	2b\	.
2r;	.	2r;	.	2r;	.	2r;	.	.	.	.	2r;	.	2r;	.	2r;	.	2r;	.	2r;	.
==	==	==	==	==	==	==	==	==	==	==	==	==	==	==	==	==	==	==	==	==
*-	*-	*-	*-	*-	*-	*-	*-	*-	*-	*-	*-	*-	*-	*-	*-	*-	*-	*-	*-	*-
!!!system-decoration: [(g1)][(g2)][(g3)][(g4)][(g5)]
!!!ENC: Anna Matuszewska
!!!END: 2020-12-26
!!!ENC: Andrzej Kubiczek
!!!END: 2020-07-16
!!!YEC: Copyright 2022 Narodowy Instytut Fryderyka Chopina (https://polishscores.org)
!!!YEM: License CC-BY-4.0 (https://creativecommons.org/licenses/by/4.0)
